image/ection-twacs-item-img5.svg

<svg fill="none" height="28" viewBox="0 0 29 28" width="29" xmlns="http://www.w3.org/2000/svg"><path clip-rule="evenodd" d="m15.2899 2.42014c-.5309-.56019-1.3822-.56019-1.9131 0-.7622.80422-1.631 1.80931-2.3029 2.82721-.6968 1.05553-1.0739 1.96618-1.0739 2.61617 0 2.55488 1.9782 4.55558 4.3333 4.55558 2.3552 0 4.3334-2.0007 4.3334-4.55558 0-.64999-.3771-1.56064-1.0739-2.61617-.672-1.0179-1.5407-2.02299-2.3029-2.82721zm-3.3647-1.37579c1.3197-1.392467 3.4966-1.392467 4.8163 0 .8009.84501 1.7576 1.94567 2.5204 3.10117.7379 1.11786 1.4048 2.44823 1.4048 3.718 0 3.58168-2.7975 6.55558-6.3334 6.55558s-6.3333-2.9739-6.3333-6.55558c0-1.26977.66684-2.60014 1.40478-3.718.76282-1.1555 1.71952-2.25616 2.52042-3.10117zm-4.63532 14.70915c-.53092-.5602-1.38218-.5602-1.9131 0-.7622.8042-1.63094 1.8093-2.30288 2.8272-.69679 1.0555-1.0739 1.9662-1.0739 2.6162 0 2.5548 1.97818 4.5555 4.33333 4.5555 2.35516 0 4.33337-2.0007 4.33337-4.5555 0-.65-.3771-1.5607-1.07393-2.6162-.67194-1.0179-1.54068-2.023-2.30289-2.8272zm-3.36472-1.3758c1.31973-1.3925 3.49662-1.3925 4.81634 0 .80087.845 1.7576 1.9457 2.5204 3.1012.7379 1.1178 1.4048 2.4482 1.4048 3.718 0 3.5816-2.79748 6.5555-6.33337 6.5555-3.53588 0-6.33333-2.9739-6.33333-6.5555 0-1.2698.666845-2.6002 1.40478-3.718.76277-1.1555 1.71952-2.2562 2.52038-3.1012zm19.36474 1.3758c-.5309-.5602-1.3822-.5602-1.9131 0-.7622.8042-1.631 1.8093-2.3029 2.8272-.6968 1.0555-1.0739 1.9662-1.0739 2.6162 0 2.5548 1.9782 4.5555 4.3333 4.5555 2.3552 0 4.3334-2.0007 4.3334-4.5555 0-.65-.3771-1.5607-1.0739-2.6162-.672-1.0179-1.5407-2.023-2.3029-2.8272zm-3.3647-1.3758c1.3197-1.3925 3.4966-1.3925 4.8163 0 .8009.845 1.7576 1.9457 2.5204 3.1012.7379 1.1178 1.4048 2.4482 1.4048 3.718 0 3.5816-2.7975 6.5555-6.3334 6.5555s-6.3333-2.9739-6.3333-6.5555c0-1.2698.6668-2.6002 1.4048-3.718.7628-1.1555 1.7195-2.2562 2.5204-3.1012z" fill="#4b4b4b" fill-rule="evenodd"/></svg>

<svg width="29" height="28" viewBox="0 0 29 28" fill="none" xmlns="http://www.w3.org/2000/svg">
<path fill-rule="evenodd" clip-rule="evenodd" d="M15.2899 2.42014C14.759 1.85995 13.9077 1.85995 13.3768 2.42014C12.6146 3.22436 11.7458 4.22945 11.0739 5.24735C10.3771 6.30288 10 7.21353 10 7.86352C10 10.4184 11.9782 12.4191 14.3333 12.4191C16.6885 12.4191 18.6667 10.4184 18.6667 7.86352C18.6667 7.21353 18.2896 6.30288 17.5928 5.24735C16.9208 4.22945 16.0521 3.22436 15.2899 2.42014ZM11.9252 1.04435C13.2449 -0.348117 15.4218 -0.348117 16.7415 1.04435C17.5424 1.88936 18.4991 2.99002 19.2619 4.14552C19.9998 5.26338 20.6667 6.59375 20.6667 7.86352C20.6667 11.4452 17.8692 14.4191 14.3333 14.4191C10.7974 14.4191 8 11.4452 8 7.86352C8 6.59375 8.66684 5.26338 9.40478 4.14552C10.1676 2.99002 11.1243 1.88936 11.9252 1.04435ZM7.28988 15.7535C6.75896 15.1933 5.9077 15.1933 5.37678 15.7535C4.61458 16.5577 3.74584 17.5628 3.0739 18.5807C2.37711 19.6362 2 20.5469 2 21.1969C2 23.7517 3.97818 25.7524 6.33333 25.7524C8.68849 25.7524 10.6667 23.7517 10.6667 21.1969C10.6667 20.5469 10.2896 19.6362 9.59277 18.5807C8.92083 17.5628 8.05209 16.5577 7.28988 15.7535ZM3.92516 14.3777C5.24489 12.9852 7.42178 12.9852 8.7415 14.3777C9.54237 15.2227 10.4991 16.3234 11.2619 17.4789C11.9998 18.5967 12.6667 19.9271 12.6667 21.1969C12.6667 24.7785 9.86922 27.7524 6.33333 27.7524C2.79745 27.7524 0 24.7785 0 21.1969C0 19.9271 0.666845 18.5967 1.40478 17.4789C2.16755 16.3234 3.1243 15.2227 3.92516 14.3777ZM23.2899 15.7535C22.759 15.1933 21.9077 15.1933 21.3768 15.7535C20.6146 16.5577 19.7458 17.5628 19.0739 18.5807C18.3771 19.6362 18 20.5469 18 21.1969C18 23.7517 19.9782 25.7524 22.3333 25.7524C24.6885 25.7524 26.6667 23.7517 26.6667 21.1969C26.6667 20.5469 26.2896 19.6362 25.5928 18.5807C24.9208 17.5628 24.0521 16.5577 23.2899 15.7535ZM19.9252 14.3777C21.2449 12.9852 23.4218 12.9852 24.7415 14.3777C25.5424 15.2227 26.4991 16.3234 27.2619 17.4789C27.9998 18.5967 28.6667 19.9271 28.6667 21.1969C28.6667 24.7785 25.8692 27.7524 22.3333 27.7524C18.7974 27.7524 16 24.7785 16 21.1969C16 19.9271 16.6668 18.5967 17.4048 17.4789C18.1676 16.3234 19.1243 15.2227 19.9252 14.3777Z" fill="#4B4B4B"/>
</svg>
